!!!OTL: ES WOLLTE EIN MAEDCHEN IN DER FRUEH AUFSTEHN
!!!ARE: Europa, Mitteleuropa, Deutschland, Taunus; Rheinland
!!!SCT: E0096E
!!!YEM: Copyright 1995, estate of Helmut Schaffrath.
**kern
*ICvox
*Ivox
*M3/4
*k[b-]
*F:
{4c
=1
4a
4a
4g
=2
4f
4f}
{8dd
8dd
=3
4.cc
8b-
4a
=4
2g
4r}
=5
{4cc
4cc
4cc
=6
4.a
8b-
4cc}
=7
{8dd
8cc
8b-
8a
8g
8f
=8
4.g
8a
4b-}
=9
{4cc
4a
4g
=10
2f
4r}
=11
{4cc
4cc
4cc
=12
4.a
8b-
4cc}
=13
{8dd
8cc
8b-
8a
8g
8f
=14
4.g
8a
4b-}
=15
{4cc
4a
4g
=16
2f}
==
!!!AGN: erzaehlendes Volks - Lied, Sage, Liebe, Leid, Tod, Ballade ?
!!!ONB: ESAC (Essen Associative Code) Database: ERK1
!!!AMT: simple triple
!!!AIN: vox
!!!EED: Helmut Schaffrath
!!!EEV: 1.0
*-
